modules/stroke-7/icons/crop.svg

<?xml version="1.0" encoding="utf-8"?>
<!-- Generated by IcoMoon.io -->
<!DOCTYPE svg PUBLIC "-//W3C//DTD SVG 1.1//EN" "http://www.w3.org/Graphics/SVG/1.1/DTD/svg11.dtd">
<svg version="1.1" xmlns="http://www.w3.org/2000/svg" xmlns:xlink="http://www.w3.org/1999/xlink" width="32" height="32" viewBox="0 0 32 32">
<g id="icomoon-ignore">
</g>
<path d="M25.063 24.526v-17.308l1.941-1.934-0.753-0.755-1.882 1.875h-17.427v-3.199h-1.066v3.199h-3.205v1.066h3.205v18.122h18.12v3.203h1.066v-3.203h4.265v-1.066h-4.265zM23.3 7.47l-16.357 16.305v-16.305h16.357zM7.7 24.526l16.297-16.245v16.245h-16.297z" fill="#000000"></path>
</svg>

<svg xmlns="http://www.w3.org/2000/svg" width="32" height="32" viewBox="0 0 32 32"><path d="M25.063 24.526V7.218l1.941-1.934-.753-.755-1.882 1.875H6.942V3.205H5.876v3.199H2.671V7.47h3.205v18.122h18.12v3.203h1.066v-3.203h4.265v-1.066h-4.265zM23.3 7.47L6.943 23.775V7.47H23.3zM7.7 24.526L23.997 8.281v16.245H7.7z"/></svg>
